images/addsectionimage/desktop-onboarding-image4-rtl.svg

<svg xmlns="http://www.w3.org/2000/svg" width="360" height="216" fill="none" viewBox="0 0 360 216">
	<g clip-path="url(#clip0_548_46169)">
		<mask id="mask0_548_46169" width="360" height="216" x="0" y="0" maskUnits="userSpaceOnUse" style="mask-type:luminance">
			<path fill="#fff" d="M0 0h360v216H0V0Z"/>
		</mask>
		<g mask="url(#mask0_548_46169)">
			<mask id="mask1_548_46169" width="360" height="216" x="0" y="0" maskUnits="userSpaceOnUse" style="mask-type:luminance">
				<path fill="#fff" d="M360 0H0v216h360V0Z"/>
			</mask>
			<g mask="url(#mask1_548_46169)">
				<path fill="#EAECF0" d="M339 29H111v176h228V29Z"/>
				<g filter="url(#filter0_d_548_46169)">
					<path fill="#EAECF0" d="M336-6.81H116c-2.21 0-4 2.133-4 4.764v219.092c0 2.631 1.79 4.763 4 4.763h220c2.209 0 4-2.132 4-4.763V-2.046c0-2.63-1.791-4.764-4-4.764Z"/>
					<path stroke="#A2A9B1" stroke-linecap="square" stroke-width="2" d="M336-8H116c-2.761 0-5 2.666-5 5.954v219.092c0 3.288 2.239 5.954 5 5.954h220c2.761 0 5-2.666 5-5.954V-2.046C341-5.334 338.761-8 336-8Z"/>
				</g>
				<path fill="#A2A9B1" d="M328 115H122v6h206v-6Zm0 32H122v6h206v-6Zm-80 12H122v6h126v-6Zm80 0h-77v6h77v-6Zm-150 12h-56v6h56v-6Zm32-38h-88v8h88v-8Zm-17-30h-71v6h71v-6Zm135 0H199v6h129v-6Zm0-12H122v6h206v-6Zm0 116H122v6h206v-6Zm0-128H122v6h206v-6Zm0 116H122v6h206v-6Zm0-128h-56v6h56v-6Zm0 116h-56v6h56v-6ZM268 67H122v6h146v-6Zm0 116H122v6h146v-6ZM177 45h-55v14h55V45Zm151-23H199v6h129v-6Zm-133 0h-73v6h73v-6Zm133-12H122v6h206v-6Zm0-12H122v6h206v-6Z"/>
				<g filter="url(#filter1_d_548_46169)">
					<path fill="#fff" d="M172 118h108v90H172v-90Z"/>
					<path fill="#fff" d="M172 184h108v24H172v-24Z"/>
					<path fill="#EAECF0" stroke="#A2A9B1" stroke-linecap="square" d="M260 190h12a2 2 0 0 1 2 2v8a2 2 0 0 1-2 2h-12a2 2 0 0 1-2-2v-8a2 2 0 0 1 2-2Z"/>
					<path fill="#54595D" fill-rule="evenodd" d="M264.632 197.668 262.964 196l-.564.564 2.232 2.236 4.8-4.8-.564-.568-4.236 4.236Z" clip-rule="evenodd"/>
					<path fill="#EAECF0" stroke="#A2A9B1" stroke-linecap="square" d="M180 190h12a2 2 0 0 1 2 2v8a2 2 0 0 1-2 2h-12a2 2 0 0 1-2-2v-8a2 2 0 0 1 2-2Z"/>
					<path fill="#54595D" fill-rule="evenodd" d="m187.5 192.4.6.6-3 3 3 3-.6.6-3.6-3.6 3.6-3.6Z" clip-rule="evenodd"/>
					<path fill="#EAECF0" stroke="#A2A9B1" stroke-linecap="square" d="M238 190h12a2 2 0 0 1 2 2v8a2 2 0 0 1-2 2h-12a2 2 0 0 1-2-2v-8a2 2 0 0 1 2-2Z"/>
					<path fill="#54595D" fill-rule="evenodd" d="m243.435 195.999-2.545-2.545.565-.566 2.546 2.546 2.545-2.545.565.565-2.545 2.545 2.546 2.546-.566.565-2.545-2.545-2.547 2.546-.565-.565 2.546-2.547Z" clip-rule="evenodd"/>
					<path fill="#fff" d="M172 118h108v70H172v-70Z"/>
					<path fill="#A2A9B1" d="M178 158h45v4h-45v-4Zm0-20h96v4h-96v-4Zm0 27h45v4h-45v-4Zm9-19h36v8h-36v-8Zm10 30c0-.796.316-1.559.879-2.121a2.996 2.996 0 0 1 4.242 0 2.996 2.996 0 0 1 0 4.242 2.996 2.996 0 0 1-4.242 0A2.996 2.996 0 0 1 197 176Zm-19-2h16v4h-16v-4Z"/>
					<path fill="#EAF3FF" d="M280 118H172v14h108v-14Z"/>
					<path fill="#EAECF0" d="M226 146h48v32h-48v-32Z"/>
					<path fill="#A2A9B1" fill-rule="evenodd" d="M243.6 157.6h12.8a1.6 1.6 0 0 1 1.6 1.6v9.6a1.6 1.6 0 0 1-1.6 1.6h-12.8a1.6 1.6 0 0 1-1.6-1.6v-9.6a1.6 1.6 0 0 1 1.6-1.6Zm12.936 10.4-3.272-4.2-2.336 2.808-3.264-4.208-4.2 5.6h13.072Z" clip-rule="evenodd"/>
					<path fill="#54595D" fill-rule="evenodd" d="M269.25 122.5h3.252a1.001 1.001 0 0 1 .922.616c.05.121.076.251.076.382V127H270v1h2.502a1.01 1.01 0 0 1 .707.293.984.984 0 0 1 .291.707v1h-9v-1c0-.553.447-1 .998-1H268v-1h-3.5v-3.502a1.001 1.001 0 0 1 .616-.922c.121-.05.251-.076.382-.076h3.252v-1.043a.75.75 0 1 1 .5 0v1.043Zm-2 3c.199 0 .39-.079.53-.22a.747.747 0 0 0 0-1.06.747.747 0 0 0-1.06 0 .747.747 0 0 0 0 1.06c.14.141.331.22.53.22Zm3.5 0c.199 0 .39-.079.53-.22a.747.747 0 0 0 0-1.06.747.747 0 0 0-1.06 0 .747.747 0 0 0 0 1.06c.14.141.331.22.53.22Z" clip-rule="evenodd"/>
					<path stroke="#A2A9B1" stroke-linecap="square" d="M171.5 117.5h109v91h-109v-91Z"/>
				</g>
				<path stroke="#FC3" stroke-linecap="square" stroke-width="4" d="M18.5 99h158c1.061 0 2.078.421 2.828 1.172A3.995 3.995 0 0 1 180.5 103v32a3.995 3.995 0 0 1-1.172 2.828A3.995 3.995 0 0 1 176.5 139h-158a3.997 3.997 0 0 1-4-4v-32a3.998 3.998 0 0 1 4-4Z"/>
				<path fill="#FC3" fill-opacity=".5" stroke="#FC3" stroke-width="2" d="M170.118 206.833 16.902 140.047a4.002 4.002 0 0 1-2.402-3.667V103.5a3.998 3.998 0 0 1 4-4h162l100 85.5v22H170.917c-.275 0-.547-.057-.799-.167Z"/>
				<path fill="#fff" d="M18.5 99h158c1.061 0 2.078.421 2.828 1.172A3.995 3.995 0 0 1 180.5 103v32a3.995 3.995 0 0 1-1.172 2.828A3.995 3.995 0 0 1 176.5 139h-158a3.997 3.997 0 0 1-4-4v-32a3.998 3.998 0 0 1 4-4Z"/>
				<path fill="#EAECF0" stroke="#A2A9B1" stroke-linecap="square" d="M167.5 110h-20a2 2 0 0 0-2 2v14a2 2 0 0 0 2 2h20a2 2 0 0 0 2-2v-14a2 2 0 0 0-2-2Z"/>
				<path fill="#54595D" fill-rule="evenodd" d="M155.448 121.502 152.946 119l-.846.846 3.348 3.354 7.2-7.2-.846-.852-6.354 6.354Z" clip-rule="evenodd"/>
				<path fill="#EAECF0" stroke="#A2A9B1" stroke-linecap="square" d="M27.5 110h20a2 2 0 0 1 2 2v14a2 2 0 0 1-2 2h-20a2 2 0 0 1-2-2v-14a2 2 0 0 1 2-2Z"/>
				<path fill="#54595D" fill-rule="evenodd" d="m39.75 113.6.9.9-4.499 4.5 4.499 4.5-.9.9-5.4-5.4 5.4-5.4Z" clip-rule="evenodd"/>
				<path fill="#EAECF0" stroke="#A2A9B1" stroke-linecap="square" d="M114.5 110h20a2 2 0 0 1 2 2v14a2 2 0 0 1-2 2h-20a2 2 0 0 1-2-2v-14a2 2 0 0 1 2-2Z"/>
				<path fill="#54595D" fill-rule="evenodd" d="m123.653 118.999-3.819-3.819.849-.848 3.818 3.818 3.817-3.817.849.849-3.817 3.817 3.818 3.818-.848.849-3.819-3.819-3.819 3.82-.849-.849 3.82-3.819Z" clip-rule="evenodd"/>
				<path fill="#FC3" stroke="#FC3" stroke-linecap="square" d="M280.5 185.5h.5v22H172v-22h108.5Z" opacity=".5"/>
			</g>
		</g>
	</g>
	<defs>
		<filter id="filter0_d_548_46169" width="240" height="241" x="106" y="-9" color-interpolation-filters="sRGB" filterUnits="userSpaceOnUse">
			<feFlood flood-opacity="0" result="BackgroundImageFix"/>
			<feColorMatrix in="SourceAlpha" result="hardAlpha" values="0 0 0 0 0 0 0 0 0 0 0 0 0 0 0 0 0 0 127 0"/>
			<feOffset dy="4"/>
			<feGaussianBlur stdDeviation="2"/>
			<feComposite in2="hardAlpha" operator="out"/>
			<feColorMatrix values="0 0 0 0 0 0 0 0 0 0 0 0 0 0 0 0 0 0 0.25 0"/>
			<feBlend in2="BackgroundImageFix" result="effect1_dropShadow_548_46169"/>
			<feBlend in="SourceGraphic" in2="effect1_dropShadow_548_46169" result="shape"/>
		</filter>
		<filter id="filter1_d_548_46169" width="112" height="94" x="170" y="115" color-interpolation-filters="sRGB" filterUnits="userSpaceOnUse">
			<feFlood flood-opacity="0" result="BackgroundImageFix"/>
			<feColorMatrix in="SourceAlpha" result="hardAlpha" values="0 0 0 0 0 0 0 0 0 0 0 0 0 0 0 0 0 0 127 0"/>
			<feOffset dy="-1"/>
			<feGaussianBlur stdDeviation=".5"/>
			<feComposite in2="hardAlpha" operator="out"/>
			<feColorMatrix values="0 0 0 0 0 0 0 0 0 0 0 0 0 0 0 0 0 0 0.1 0"/>
			<feBlend in2="BackgroundImageFix" result="effect1_dropShadow_548_46169"/>
			<feBlend in="SourceGraphic" in2="effect1_dropShadow_548_46169" result="shape"/>
		</filter>
		<clipPath id="clip0_548_46169">
			<path fill="#fff" d="M0 0h360v216H0z"/>
		</clipPath>
	</defs>
</svg>

<svg width="360" height="216" viewBox="0 0 360 216" fill="none" xmlns="http://www.w3.org/2000/svg">
<g clip-path="url(#clip0_548_46169)">
<mask id="mask0_548_46169" style="mask-type:luminance" maskUnits="userSpaceOnUse" x="0" y="0" width="360" height="216">
<path d="M0 0H360V216H0V0Z" fill="white"/>
</mask>
<g mask="url(#mask0_548_46169)">
<mask id="mask1_548_46169" style="mask-type:luminance" maskUnits="userSpaceOnUse" x="0" y="0" width="360" height="216">
<path d="M360 0H0V216H360V0Z" fill="white"/>
</mask>
<g mask="url(#mask1_548_46169)">
<path d="M339 29H111V205H339V29Z" fill="#EAECF0"/>
<g filter="url(#filter0_d_548_46169)">
<path d="M336 -6.81006H116C113.79 -6.81006 112 -4.67706 112 -2.04606V217.046C112 219.677 113.79 221.809 116 221.809H336C338.209 221.809 340 219.677 340 217.046V-2.04606C340 -4.67606 338.209 -6.81006 336 -6.81006Z" fill="#EAECF0"/>
<path d="M336 -8H116C113.239 -8 111 -5.334 111 -2.046V217.046C111 220.334 113.239 223 116 223H336C338.761 223 341 220.334 341 217.046V-2.046C341 -5.334 338.761 -8 336 -8Z" stroke="#A2A9B1" stroke-width="2" stroke-linecap="square"/>
</g>
<path d="M328 115H122V121H328V115ZM328 147H122V153H328V147ZM248 159H122V165H248V159ZM328 159H251V165H328V159ZM178 171H122V177H178V171ZM210 133H122V141H210V133ZM193 103H122V109H193V103ZM328 103H199V109H328V103ZM328 91H122V97H328V91ZM328 207H122V213H328V207ZM328 79H122V85H328V79ZM328 195H122V201H328V195ZM328 67H272V73H328V67ZM328 183H272V189H328V183ZM268 67H122V73H268V67ZM268 183H122V189H268V183ZM177 45H122V59H177V45ZM328 22H199V28H328V22ZM195 22H122V28H195V22ZM328 10H122V16H328V10ZM328 -2H122V4H328V-2Z" fill="#A2A9B1"/>
<g filter="url(#filter1_d_548_46169)">
<path d="M172 118H280V208H172V118Z" fill="white"/>
<path d="M172 184H280V208H172V184Z" fill="white"/>
<path d="M260 190H272C272.53 190 273.039 190.211 273.414 190.586C273.789 190.961 274 191.47 274 192V200C274 200.53 273.789 201.039 273.414 201.414C273.039 201.789 272.53 202 272 202H260C259.47 202 258.961 201.789 258.586 201.414C258.211 201.039 258 200.53 258 200V192C258 191.47 258.211 190.961 258.586 190.586C258.961 190.211 259.47 190 260 190Z" fill="#EAECF0" stroke="#A2A9B1" stroke-linecap="square"/>
<path fill-rule="evenodd" clip-rule="evenodd" d="M264.632 197.668L262.964 196L262.4 196.564L264.632 198.8L269.432 194L268.868 193.432L264.632 197.668Z" fill="#54595D"/>
<path d="M180 190H192C192.53 190 193.039 190.211 193.414 190.586C193.789 190.961 194 191.47 194 192V200C194 200.53 193.789 201.039 193.414 201.414C193.039 201.789 192.53 202 192 202H180C179.47 202 178.961 201.789 178.586 201.414C178.211 201.039 178 200.53 178 200V192C178 191.47 178.211 190.961 178.586 190.586C178.961 190.211 179.47 190 180 190Z" fill="#EAECF0" stroke="#A2A9B1" stroke-linecap="square"/>
<path fill-rule="evenodd" clip-rule="evenodd" d="M187.5 192.4L188.1 193L185.1 196L188.1 199L187.5 199.6L183.9 196L187.5 192.4Z" fill="#54595D"/>
<path d="M238 190H250C250.53 190 251.039 190.211 251.414 190.586C251.789 190.961 252 191.47 252 192V200C252 200.53 251.789 201.039 251.414 201.414C251.039 201.789 250.53 202 250 202H238C237.47 202 236.961 201.789 236.586 201.414C236.211 201.039 236 200.53 236 200V192C236 191.47 236.211 190.961 236.586 190.586C236.961 190.211 237.47 190 238 190Z" fill="#EAECF0" stroke="#A2A9B1" stroke-linecap="square"/>
<path fill-rule="evenodd" clip-rule="evenodd" d="M243.435 195.999L240.89 193.454L241.455 192.888L244.001 195.434L246.546 192.889L247.111 193.454L244.566 195.999L247.112 198.545L246.546 199.11L244.001 196.565L241.454 199.111L240.889 198.546L243.435 195.999Z" fill="#54595D"/>
<path d="M172 118H280V188H172V118Z" fill="white"/>
<path d="M178 158H223V162H178V158ZM178 138H274V142H178V138ZM178 165H223V169H178V165ZM187 146H223V154H187V146ZM197 176C197 175.204 197.316 174.441 197.879 173.879C198.441 173.316 199.204 173 200 173C200.796 173 201.559 173.316 202.121 173.879C202.684 174.441 203 175.204 203 176C203 176.796 202.684 177.559 202.121 178.121C201.559 178.684 200.796 179 200 179C199.204 179 198.441 178.684 197.879 178.121C197.316 177.559 197 176.796 197 176ZM178 174H194V178H178V174Z" fill="#A2A9B1"/>
<path d="M280 118H172V132H280V118Z" fill="#EAF3FF"/>
<path d="M226 146H274V178H226V146Z" fill="#EAECF0"/>
<path fill-rule="evenodd" clip-rule="evenodd" d="M243.6 157.6H256.4C256.824 157.6 257.231 157.769 257.531 158.069C257.831 158.369 258 158.776 258 159.2V168.8C258 169.224 257.831 169.631 257.531 169.931C257.231 170.232 256.824 170.4 256.4 170.4H243.6C243.176 170.4 242.769 170.232 242.469 169.931C242.169 169.631 242 169.224 242 168.8V159.2C242 158.776 242.169 158.369 242.469 158.069C242.769 157.769 243.176 157.6 243.6 157.6ZM256.536 168L253.264 163.8L250.928 166.608L247.664 162.4L243.464 168H256.536Z" fill="#A2A9B1"/>
<path fill-rule="evenodd" clip-rule="evenodd" d="M269.25 122.5H272.502C272.633 122.5 272.763 122.526 272.884 122.576C273.005 122.626 273.115 122.7 273.208 122.792C273.3 122.885 273.374 122.995 273.424 123.116C273.474 123.237 273.5 123.367 273.5 123.498V127H270V128H272.502C272.633 128 272.763 128.026 272.885 128.076C273.006 128.126 273.116 128.2 273.209 128.293C273.302 128.385 273.375 128.496 273.425 128.617C273.475 128.739 273.501 128.869 273.5 129V130H264.5V129C264.5 128.447 264.947 128 265.498 128H268V127H264.5V123.498C264.5 123.367 264.526 123.237 264.576 123.116C264.626 122.995 264.7 122.885 264.792 122.792C264.885 122.7 264.995 122.626 265.116 122.576C265.237 122.526 265.367 122.5 265.498 122.5H268.75V121.457C268.583 121.398 268.443 121.282 268.353 121.129C268.264 120.977 268.231 120.798 268.261 120.623C268.291 120.449 268.381 120.291 268.517 120.177C268.652 120.063 268.823 120 269 120C269.177 120 269.348 120.063 269.483 120.177C269.619 120.291 269.709 120.449 269.739 120.623C269.769 120.798 269.736 120.977 269.647 121.129C269.557 121.282 269.417 121.398 269.25 121.457V122.5ZM267.25 125.5C267.449 125.5 267.64 125.421 267.78 125.28C267.921 125.14 268 124.949 268 124.75C268 124.551 267.921 124.36 267.78 124.22C267.64 124.079 267.449 124 267.25 124C267.051 124 266.86 124.079 266.72 124.22C266.579 124.36 266.5 124.551 266.5 124.75C266.5 124.949 266.579 125.14 266.72 125.28C266.86 125.421 267.051 125.5 267.25 125.5ZM270.75 125.5C270.949 125.5 271.14 125.421 271.28 125.28C271.421 125.14 271.5 124.949 271.5 124.75C271.5 124.551 271.421 124.36 271.28 124.22C271.14 124.079 270.949 124 270.75 124C270.551 124 270.36 124.079 270.22 124.22C270.079 124.36 270 124.551 270 124.75C270 124.949 270.079 125.14 270.22 125.28C270.36 125.421 270.551 125.5 270.75 125.5Z" fill="#54595D"/>
<path d="M171.5 117.5H280.5V208.5H171.5V117.5Z" stroke="#A2A9B1" stroke-linecap="square"/>
</g>
<path d="M18.5 99H176.5C177.561 99 178.578 99.4214 179.328 100.172C180.079 100.922 180.5 101.939 180.5 103V135C180.5 136.061 180.079 137.078 179.328 137.828C178.578 138.579 177.561 139 176.5 139H18.5C17.4391 139 16.4217 138.579 15.6716 137.828C14.9214 137.078 14.5 136.061 14.5 135V103C14.5 101.939 14.9214 100.922 15.6716 100.172C16.4217 99.4214 17.4391 99 18.5 99Z" stroke="#FFCC33" stroke-width="4" stroke-linecap="square"/>
<path d="M170.118 206.833L16.902 140.047C16.1882 139.736 15.5806 139.223 15.1539 138.572C14.7273 137.92 14.5 137.159 14.5 136.38V103.5C14.5 102.439 14.9214 101.422 15.6716 100.672C16.4217 99.9214 17.4391 99.5 18.5 99.5H180.5L280.5 185V207H170.917C170.642 207 170.37 206.943 170.118 206.833Z" fill="#FFCC33" fill-opacity="0.5" stroke="#FFCC33" stroke-width="2"/>
<path d="M18.5 99H176.5C177.561 99 178.578 99.4214 179.328 100.172C180.079 100.922 180.5 101.939 180.5 103V135C180.5 136.061 180.079 137.078 179.328 137.828C178.578 138.579 177.561 139 176.5 139H18.5C17.4391 139 16.4217 138.579 15.6716 137.828C14.9214 137.078 14.5 136.061 14.5 135V103C14.5 101.939 14.9214 100.922 15.6716 100.172C16.4217 99.4214 17.4391 99 18.5 99Z" fill="white"/>
<path d="M167.5 110H147.5C146.97 110 146.461 110.211 146.086 110.586C145.711 110.961 145.5 111.47 145.5 112V126C145.5 126.53 145.711 127.039 146.086 127.414C146.461 127.789 146.97 128 147.5 128H167.5C168.03 128 168.539 127.789 168.914 127.414C169.289 127.039 169.5 126.53 169.5 126V112C169.5 111.47 169.289 110.961 168.914 110.586C168.539 110.211 168.03 110 167.5 110Z" fill="#EAECF0" stroke="#A2A9B1" stroke-linecap="square"/>
<path fill-rule="evenodd" clip-rule="evenodd" d="M155.448 121.502L152.946 119L152.1 119.846L155.448 123.2L162.648 116L161.802 115.148L155.448 121.502Z" fill="#54595D"/>
<path d="M27.5 110H47.5C48.0304 110 48.5391 110.211 48.9142 110.586C49.2893 110.961 49.5 111.47 49.5 112V126C49.5 126.53 49.2893 127.039 48.9142 127.414C48.5391 127.789 48.0304 128 47.5 128H27.5C26.9696 128 26.4609 127.789 26.0858 127.414C25.7107 127.039 25.5 126.53 25.5 126V112C25.5 111.47 25.7107 110.961 26.0858 110.586C26.4609 110.211 26.9696 110 27.5 110Z" fill="#EAECF0" stroke="#A2A9B1" stroke-linecap="square"/>
<path fill-rule="evenodd" clip-rule="evenodd" d="M39.75 113.6L40.65 114.5L36.151 119L40.65 123.5L39.75 124.4L34.35 119L39.75 113.6Z" fill="#54595D"/>
<path d="M114.5 110H134.5C135.03 110 135.539 110.211 135.914 110.586C136.289 110.961 136.5 111.47 136.5 112V126C136.5 126.53 136.289 127.039 135.914 127.414C135.539 127.789 135.03 128 134.5 128H114.5C113.97 128 113.461 127.789 113.086 127.414C112.711 127.039 112.5 126.53 112.5 126V112C112.5 111.47 112.711 110.961 113.086 110.586C113.461 110.211 113.97 110 114.5 110Z" fill="#EAECF0" stroke="#A2A9B1" stroke-linecap="square"/>
<path fill-rule="evenodd" clip-rule="evenodd" d="M123.653 118.999L119.834 115.18L120.683 114.332L124.501 118.15L128.318 114.333L129.167 115.182L125.35 118.999L129.168 122.817L128.32 123.666L124.501 119.847L120.682 123.667L119.833 122.818L123.653 118.999Z" fill="#54595D"/>
<path opacity="0.5" d="M280.5 185.5H281V207.5H172V185.5H280.5Z" fill="#FFCC33" stroke="#FFCC33" stroke-linecap="square"/>
</g>
</g>
</g>
<defs>
<filter id="filter0_d_548_46169" x="106" y="-9" width="240" height="241" filterUnits="userSpaceOnUse" color-interpolation-filters="sRGB">
<feFlood flood-opacity="0" result="BackgroundImageFix"/>
<feColorMatrix in="SourceAlpha" type="matrix" values="0 0 0 0 0 0 0 0 0 0 0 0 0 0 0 0 0 0 127 0" result="hardAlpha"/>
<feOffset dy="4"/>
<feGaussianBlur stdDeviation="2"/>
<feComposite in2="hardAlpha" operator="out"/>
<feColorMatrix type="matrix" values="0 0 0 0 0 0 0 0 0 0 0 0 0 0 0 0 0 0 0.25 0"/>
<feBlend mode="normal" in2="BackgroundImageFix" result="effect1_dropShadow_548_46169"/>
<feBlend mode="normal" in="SourceGraphic" in2="effect1_dropShadow_548_46169" result="shape"/>
</filter>
<filter id="filter1_d_548_46169" x="170" y="115" width="112" height="94" filterUnits="userSpaceOnUse" color-interpolation-filters="sRGB">
<feFlood flood-opacity="0" result="BackgroundImageFix"/>
<feColorMatrix in="SourceAlpha" type="matrix" values="0 0 0 0 0 0 0 0 0 0 0 0 0 0 0 0 0 0 127 0" result="hardAlpha"/>
<feOffset dy="-1"/>
<feGaussianBlur stdDeviation="0.5"/>
<feComposite in2="hardAlpha" operator="out"/>
<feColorMatrix type="matrix" values="0 0 0 0 0 0 0 0 0 0 0 0 0 0 0 0 0 0 0.1 0"/>
<feBlend mode="normal" in2="BackgroundImageFix" result="effect1_dropShadow_548_46169"/>
<feBlend mode="normal" in="SourceGraphic" in2="effect1_dropShadow_548_46169" result="shape"/>
</filter>
<clipPath id="clip0_548_46169">
<rect width="360" height="216" fill="white"/>
</clipPath>
</defs>
</svg>
